X:1
T:Dashing Away With The Smoothing Iron
M:6/8
L:1/8
K:G
 D| G2 G G2 G| G2- F D2 D| G2 G G2 G| G2- F D2 D| G2 G G2 G| G2- A B2 c|\
 d2 d e2 c| d3- d2 d| e2 e c2 e| d2 c A2 F| G2 B A2 G| F2 F D3| GGG GGG|\
 G2 F D3| GGG GGG| G2 A B2 c| d2 dc-B A| G3- G2||
